X:1
T:Dichterliebe, Op.48
T:Allnächtlich im Traume
T:14. Allnächtlich im Traume
T:Robert Schumann
T:Dichterliebe, Op.48
T:Heinrich Heine
T:OpenScore (CC0)
T:OpenScore (CC0)
C:Robert Schumann
Z:Heinrich Heine
Z:OpenScore (CC0)
%%score 1 { ( 2 4 ) | ( 3 5 ) }
L:1/8
Q:1/4=60
M:2/4
K:B
V:1 treble nm="Voice"
V:2 treble nm="Piano"
V:4 treble 
V:3 bass 
V:5 bass 
V:1
!p! B | A F z c | B F z2 | c3 G | A2 z B | A F z c | B F z2 | c3 G | B A z F || %9
w: All-|nächt- lich im|Trau- me|seh' ich|dich, und|se- he dich|freund- lich,|freund- lich|grü- ssen, und|
[M:3/4]!<(! F3/2 F/ G/ G/ ^^F/ G/!<)! c z/ G/ ||[M:2/4] B3/2 D/ ^F3/2 A,/ | %11
w: laut auf- wein- end stürz' ich mich zu|dei- nen süs- sen|
"^ritard."[Q:1/4=58] C/ B,/ z[Q:1/4=56] z2 |[Q:1/4=54] z4 | z2[Q:1/4=60] z B | A F z c | B2 z2 | %16
w: Füs- sen.||Du|sie- hest mich|an,|
 c3 G/ G/ | A2 z B | A F z2 | B F z d | c3 G | B A z F || %22
w: weh- mü- thig-|lich und|schüt- telst,|schüt- telst das|blon- de|Köpf- chen; aus|
[M:3/4]!<(! F3/2 F/ G/ G/ ^^F/ G/!<)! c z/ G/ ||[M:2/4] B3/2 D/ ^F3/2 A,/ | %24
w: dei- nen Au- gen schlei- chen sich die|Per- len Thrä- nen-|
"^ritard."[Q:1/4=57] C/ B,/ z[Q:1/4=54] z2 |[Q:1/4=51] z4 | z2[Q:1/4=60] z!pp! B | A F z2 | %28
w: tröpf- chen.||Du|sagst mir|
 B F z d | c3 G | A2 z B | A2 F3/2 c/ | B3 d | c2 G G | B A z/ F/ F/ F/ | F2 z!<(! G/ G/ | %36
w: heim- lich ein|lei- ses|Wort, und|giebst mir den|Strauss, den|Strauss von Cy-|pres- sen. Ich wa- che|auf, und der|
 A3/2!<)! A/ B c | d/!>(! B/ B/ G/ F/!>)! F/ z | z4 |] %39
w: Strauss ist fort, und's|Wort hab' ich ver- ges- sen.||
V:2
!p! [DFB] | [CEA] [A,EF]2 [EFc] | [DFB] [B,DF]2 [FBd] | [Gc]3 G | [CFA] (=E2 [DFB]) | %5
 [CEA] [A,EF]2 [EFc] | [DFB] [B,DF]2 [FBd] | [Gc]3 G | [CFA]3 z || %9
[M:3/4] [=A,B,DF]2!<(! [G,EG]2!<)! [CGBc]2 ||[M:2/4]!>(! [B,DFB]2!>)! [^A,CEF-]2 | %11
"^ritard." [B,F]!<(! (BA[=Ge] | [Fd]!<)! !>![B=dg]2)!>(! [Acf]- | [Acf]B!>)! z [DFB] | %14
 [CEA] [A,EF]2 [EFc] | [DFB] [B,DF]2 [FBd] | [CGc]2 [CG]2 | [CFA] (=E2 [DFB]) | %18
 [CEA] [A,EF]2 [EFc] | [DFB] [B,DF]2 [FBd] | [Gc]3 G | [CFA]3 z || %22
[M:3/4]!<(! [=A,B,DF]2 [G,EG]2 [CGBc]2!<)! ||[M:2/4]!>(! [B,DFB]2 [^A,CEF]2!>)! | %24
"^ritard." [B,F]!<(! (BA[=Ge] | [Fd]!<)! !>![B=dg]2)!>(! [Acf]- | [Acf]B!>)! z!pp! [DFB] | %27
 [CEA] [A,EF]2 [EFc] | [DFB] [B,DF]2 [FBd] | [Gc]3 G | [CFA] (=E2 [DFB]) | [CEA] [A,EF]2 [EFc] | %32
 [DFB] [B,DF]2 [FBd] | [CGc]4 | [CFA]3 z | !>![=A,B,DF]2!<(! [G,B,EG]2 | %36
 !>![CD^^F^A]2!<)! [B,DGB] [CE^Fc] | [DFBd][CGB] [DFB] z/ [EFA]/- | ([EF-Ac]2 [DFB]) z |] %39
V:3
 [B,,,F,,]- | [B,,,F,,]3 [B,,,F,,]- | [B,,,F,,]4 | [E,,E,]2 [^E,,^E,]2 | [F,,F,]2 z [B,,,F,,]- | %5
 [B,,,F,,]3 [B,,,F,,]- | [B,,,F,,]4 | [E,,E,]2 [^E,,^E,]2 | [F,,F,]3 z || %9
[M:3/4] [B,,,B,,]2 [E,,B,,]2 [^E,,C,]2 ||[M:2/4] [F,,F,]4 | [B,,,B,,] z z ([A,C] | %12
 [B,D] [^EG]2) [F,=E]- | [F,E][B,D] z [B,,,F,,]- | [B,,,F,,]3 [B,,,F,,]- | [B,,,F,,]4 | %16
 [E,,E,]2 [^E,,^E,]2 | [F,,F,]2 z [B,,,F,,]- | [B,,,F,,]3 [B,,,F,,]- | [B,,,F,,]4 | %20
 [E,,E,]2 [^E,,^E,]2 | [F,,F,]3 z ||[M:3/4] [B,,,B,,]2 [E,,B,,]2 [^E,,C,]2 ||[M:2/4] [F,,F,]4 | %24
 [B,,,B,,] z z ([A,C] | [B,D] [^EG]2) [F,=E]- | [F,E][B,D] z F,- | F,3 F,- | F,4 | %29
 [E,,E,]2 [^E,,^E,]2 | [F,,F,]2 z [B,,F,]- | [B,,F,]3 [B,,F,]- | [B,,F,]4 | [E,,E,]2 [^E,,^E,]2 | %34
 [F,,F,]3 z | [B,,,B,,]2 [E,,E,]2 | [D,,D,]2 [G,,G,] [A,,A,] | [B,,B,][E,B,] [F,B,] z/ F,/- | %38
 [B,,F,]3 z |] %39
V:4
 x | x4 | x4 | C4 | x4 | x4 | x4 | C4 | x4 ||[M:3/4] x6 ||[M:2/4] x4 | x4 | x4 | x4 | x4 | x4 | %16
 x4 | x4 | x4 | x4 | C4 | x4 ||[M:3/4] x6 ||[M:2/4] x4 | x4 | x4 | x4 | x4 | x4 | C4 | x4 | x4 | %32
 x4 | x4 | x4 | x4 | x4 | x4 | x4 |] %39
V:5
 x | x4 | x4 | x4 | x4 | x4 | x4 | x4 | x4 ||[M:3/4] x6 ||[M:2/4] x4 | x4 | x4 | x4 | x4 | x4 | %16
 x4 | x4 | x4 | x4 | x4 | x4 ||[M:3/4] x6 ||[M:2/4] x4 | x4 | x4 | x2 x B,,- | B,,3 B,,- | B,,4 | %29
 x4 | x4 | x4 | x4 | x4 | x4 | x4 | x4 | x4 | x4 |] %39

